!!!!SEGMENT: pl-cz--ii-153--006_maader-ludwik--requiem-in-dis-agnus-dei.krn
!!!cenid: 17xx:965
!!!COM: Maader, Ludwik
!!!COM-rismid: pe30020328
!!!CDT: <1794->1798
!!!CNT:
!!!OPR: Requiem in Dis
!!!OTL: Agnus Dei
!!!OMV: 006
!!!PDT:
!!!AGN: Sacred; Requiem
!!!SMS-siglum: PL-CZ
!!!SMS-shelfmark: II-153
!!!SMS-shelfwork: 001-006 M
!!!SMS-variant:
!!!SMS-altvar:
!!!NIFC-rismid: 300000766
!!!URL-scan: http://repozytorium.nifc.pl/skany/pl-cz-nut--ii-153
!!!ONB-nifc: UWAGA: części Requiem: Requiem, Dies irae, Domine Jesu Christe, Sanctus, Benedictus, Agnus, Lux aeterna, Requiem
**kern	**fba	**dynam	**kern	**dynam	**kern	**dynam	**kern	**kern	**text	**kern	**text	**kern	**text	**kern	**text	**kern	**dynam	**kern
*part10	*part10	*part10	*part9	*part9	*part8	*part8	*part7	*part6	*part6	*part5	*part5	*part4	*part4	*part3	*part3	*part2	*part2	*part1
*group4	*	*	*group3	*	*group3	*	*group3	*group2	*group2	*group2	*group2	*group2	*group2	*group2	*group2	*group1	*	*group1
*staff10	*	*	*staff9	*	*staff8	*	*staff7	*staff6	*staff6	*staff5	*staff5	*staff4	*staff4	*staff3	*staff3	*staff2	*	*staff1
*Iorgan	*	*	*Ivioln	*	*Ivioln	*	*Ivioln	*Iempty	*	*Itenor	*	*Ialto	*	*Ivox	*	*Iempty	*	*Iempty
*I"Organo.	*	*	*I"Violino Secondo.	*	*I"Violino Primo	*	*I"Violino Principale	*I"Baſso	*	*I"Tenore	*	*I"Alto	*	*I"Canto	*	*I"Cornu Secondo Obl in Dis	*	*I"Cornu Primo in Dis Obl.
*I'org	*	*	*I'vl 2	*	*I'vl 1	*	*I'vl princ	*I'B	*	*I'T	*	*I'A	*	*I'S	*	*I'cor 2 in D#	*	*I'cor 1 in D#
*clefF4	*	*	*clefG2	*	*clefG2	*	*clefG2	*clefF4	*	*clefC4	*	*clefC3	*	*clefC1	*	*clefG2	*	*clefG2
*	*	*	*	*	*	*	*	*	*	*	*	*	*	*	*	*ITrd5c9	*	*ITrd5c9
*k[b-e-a-]	*	*	*k[b-e-a-]	*	*k[b-e-a-]	*	*k[b-e-a-]	*k[b-e-a-]	*	*k[b-e-a-]	*	*k[e-b-a-]	*	*k[b-e-a-]	*	*k[b-e-a-]	*	*k[b-e-a-]
*E-:	*	*	*E-:	*	*E-:	*	*E-:	*E-:	*	*E-:	*	*E-:	*	*E-:	*	*E-:	*	*E-:
*M3/4	*	*	*M3/4	*	*M3/4	*	*M3/4	*M3/4	*	*M3/4	*	*M3/4	*	*M3/4	*	*M3/4	*	*M3/4
=1	=1	=1	=1	=1	=1	=1	=1	=1	=1	=1	=1	=1	=1	=1	=1	=1	=1	=1
!!LO:TX:t=P:problem:all\right:global
!	!	!	!	!	!	!	!	!LO:TX:t=P:problem:znaki: A- zamiast E-	!	!	!	!	!	!	!	!	!	!
!	!	!	!	!	!	!	!	!LO:TX:a:t=Ada&colon;	!	!	!	!LO:TX:t=Adagio	!	!LO:TX:t=P:problem:znaki: ee- zamiast e-	!	!	!	!
!	!	!	!	!	!LO:TX:a:t=Adagio	!	!	!LO:TX:a:t=44.	!	!LO:TX:a:t=Adagio	!	!LO:TX:t=P:problem:znaki: a- zamiast A-	!	!LO:TX:a:t=Adagio	!	!LO:TX:a:t=Adagio	!	!LO:TX:a:t=Adagio
!LO:TX:a:t=Adagio Solo	!	!LO:DY:B:i:b:t=pia	!LO:TX:a:rj:t=Adagio	!	!LO:TX:a:t=Solo	!	!LO:TX:t=[Tacet]	!LO:N:vis=00	!	!LO:TX:a:t=44	!	!LO:N:vis=00	!	!LO:TX:a:t=Solo	!	!LO:TX:t=44.	!	!LO:TX:a:t=44
4E-\	.	p	8r	.	8r	.	2.ryy	0.r	.	2.r	.	0.r	.	4.b-\	Ag-	2.r	.	2.r
!	!	!	!LO:TX:a:t=Soli	!LO:DY:B:i:b:t=pia	!	!	!	!	!	!	!	!	!	!	!	!	!	!
.	.	.	8g/L	p	8b-'\L	.	.	.	.	.	.	.	.	.	.	.	.	.
4E-\	.	.	8g/	.	8b-'\	.	.	.	.	.	.	.	.	.	.	.	.	.
.	.	.	8g/	.	8b-'\	.	.	.	.	.	.	.	.	16cc\LL	.	.	.	.
.	.	.	.	.	.	.	.	.	.	.	.	.	.	16b-\JJ	.	.	.	.
4r	.	.	8g/	.	8b-\	.	.	.	.	.	.	.	.	4ee-\	-nus	.	.	.
.	.	.	8g/J	.	8b-\J	.	.	.	.	.	.	.	.	.	.	.	.	.
=2	=2	=2	=2	=2	=2	=2	=2	=2	=2	=2	=2	=2	=2	=2	=2	=2	=2	=2
4B-\	.	.	8g/L	.	(8b-\L	.	2.ryy	.	.	2.r	.	.	.	8b-\L	De-	2.r	.	2.r
.	.	.	8f/	.	8a-\	.	.	.	.	.	.	.	.	8a-\J	.	.	.	.
4E-\	.	.	8e-/	.	8g\)	.	.	.	.	.	.	.	.	8g\L	-i	.	.	.
.	.	.	8g/	.	8b-|\	.	.	.	.	.	.	.	.	8b-\J	.	.	.	.
8r	.	.	8g/	.	8b-|\	.	.	.	.	.	.	.	.	8ee-\L	qui	.	.	.
8E-\	.	.	8g/J	.	8b-|\J	.	.	.	.	.	.	.	.	8gg\J	.	.	.	.
=3	=3	=3	=3	=3	=3	=3	=3	=3	=3	=3	=3	=3	=3	=3	=3	=3	=3	=3
4BB-/	.	.	8g/L	.	(8b-\L	.	2.ryy	.	.	2.r	.	.	.	8b-\L	tol-	2.r	.	2.r
.	.	.	8f/	.	8a-\	.	.	.	.	.	.	.	.	8a-\J	.	.	.	.
4E-\	.	.	8e-/	.	8g\)	.	.	.	.	.	.	.	.	4g\	-lis	.	.	.
.	.	.	8g/	.	8b-|\	.	.	.	.	.	.	.	.	.	.	.	.	.
4E-\	.	.	8g/	.	8b-|\	.	.	.	.	.	.	.	.	4b-\	pec-	.	.	.
.	.	.	8g/J	.	8b-|\J	.	.	.	.	.	.	.	.	.	.	.	.	.
=4	=4	=4	=4	=4	=4	=4	=4	=4	=4	=4	=4	=4	=4	=4	=4	=4	=4	=4
4A-\	.	.	8e-/	.	8cc\	.	2.ryy	.	.	2.r	.	.	.	8cc\L	-ca-	2.r	.	2.r
.	.	.	8r	.	8r	.	.	.	.	.	.	.	.	16dd\L	.	.	.	.
.	.	.	.	.	.	.	.	.	.	.	.	.	.	16ee-\JJ	.	.	.	.
4r	.	.	4r	.	4r	.	.	.	.	.	.	.	.	8ff\L	.	.	.	.
.	.	.	.	.	.	.	.	.	.	.	.	.	.	8gg\J	.	.	.	.
8F\L	.	.	4a-/	.	4cc\	.	.	.	.	.	.	.	.	8aa-\	.	.	.	.
8A-\J	.	.	.	.	.	.	.	.	.	.	.	.	.	8ff\	-ta	.	.	.
!	!	!	!LO:LB:g=original	!	!LO:LB:g=original	!	!	!	!	!	!	!	!	!	!	!	!	!
=5	=5	=5	=5	=5	=5	=5	=5	=5	=5	=5	=5	=5	=5	=5	=5	=5	=5	=5
.	.	.	.	.	.	.	.	.	.	.	.	.	.	8qqee-/	.	.	.	.
!	!	!	!	!	!	!	!	!LO:N:vis=00	!	!	!	!LO:N:vis=00	!	!	!	!	!	!
4B-\	.	.	4f/	.	4dd\	.	2.ryy	0.r	.	2.r	.	0.r	.	4dd\	Mun-	2.r	.	2.r
!	!	!	!LO:TX:t=P:problem:mixed beam	!	!	!	!	!	!	!	!	!	!	!	!	!	!	!
4E-\	.	.	8g/L	.	8ee-\L	.	.	.	.	.	.	.	.	4ee-\	-di	.	.	.
.	.	.	16gg\L	.	16bb-\L	.	.	.	.	.	.	.	.	.	.	.	.	.
.	.	.	16ee-\JJ	.	16gg\JJ	.	.	.	.	.	.	.	.	.	.	.	.	.
!	!	!	!LO:TX:t=P:problem:mixed beam	!	!	!	!	!	!	!	!	!	!	!	!	!	!	!
4BB-/	.	.	16ff\LL	.	16aa-\LL	.	.	.	.	.	.	.	.	4r	.	.	.	.
.	.	.	16a-/	.	16ff\	.	.	.	.	.	.	.	.	.	.	.	.	.
.	.	.	16g/	.	16ee-\	.	.	.	.	.	.	.	.	.	.	.	.	.
.	.	.	16f/JJ	.	16dd\JJ	.	.	.	.	.	.	.	.	.	.	.	.	.
!	!	!	!	!	!	!	!	!	!	!	!	!	!	!LO:LB:g=original	!	!	!	!
=6	=6	=6	=6	=6	=6	=6	=6	=6	=6	=6	=6	=6	=6	=6	=6	=6	=6	=6
.	.	.	.	.	.	.	.	.	.	.	.	.	.	8qqb-/	.	.	.	.
4E-\	.	.	8g/L	.	8ee-\L	.	2.ryy	.	.	2.r	.	.	.	2.gg\	qui	2.r	.	2.r
.	.	.	8g/	.	8b-\	.	.	.	.	.	.	.	.	.	.	.	.	.
4E-\	.	.	8g/	.	8b-\	.	.	.	.	.	.	.	.	.	.	.	.	.
.	.	.	8g/	.	8b-\	.	.	.	.	.	.	.	.	.	.	.	.	.
4E-\	.	.	8g/	.	8b-\	.	.	.	.	.	.	.	.	.	.	.	.	.
.	.	.	8e-/J	.	8g\J	.	.	.	.	.	.	.	.	.	.	.	.	.
!LO:LB:g=original	!	!	!	!	!	!	!	!	!	!	!	!	!	!	!	!	!	!
=7	=7	=7	=7	=7	=7	=7	=7	=7	=7	=7	=7	=7	=7	=7	=7	=7	=7	=7
.	.	.	.	.	.	.	.	.	.	.	.	.	.	8qqgg/	.	.	.	.
4BB-/	.	.	4d/	.	4f/	.	2.ryy	.	.	2.r	.	.	.	4ff\	tol-	2.r	.	2.r
4B-\	.	.	4r	.	4r	.	.	.	.	.	.	.	.	8ee-\L	-lis	.	.	.
.	.	.	.	.	.	.	.	.	.	.	.	.	.	8dd\J	.	.	.	.
4r	.	.	4r	.	4r	.	.	.	.	.	.	.	.	8cc\L	pec-	.	.	.
.	.	.	.	.	.	.	.	.	.	.	.	.	.	8b-\J	.	.	.	.
=8	=8	=8	=8	=8	=8	=8	=8	=8	=8	=8	=8	=8	=8	=8	=8	=8	=8	=8
4r	.	.	8r	.	8r	.	2.ryy	.	.	2.r	.	.	.	4.ee-\	-ca-	2.r	.	2.r
.	.	.	8cc\	.	8ee-\	.	.	.	.	.	.	.	.	.	.	.	.	.
4F\	x n	.	8cc\L	.	8ee-\L	.	.	.	.	.	.	.	.	.	.	.	.	.
.	.	.	16b-\L	.	16dd\L	.	.	.	.	.	.	.	.	16dd\LL	.	.	.	.
.	.	.	16cc\JJ	.	16ee-\JJ	.	.	.	.	.	.	.	.	16ee-\JJ	.	.	.	.
4An\	x 65	.	8dd\L	.	8ff\L	.	.	.	.	.	.	.	.	8ff\	.	.	.	.
.	.	.	8cc\J	.	8ee-\J	.	.	.	.	.	.	.	.	8ee-\	-ta	.	.	.
=9	=9	=9	=9	=9	=9	=9	=9	=9	=9	=9	=9	=9	=9	=9	=9	=9	=9	=9
!	!	!	!	!	!	!	!	!LO:N:vis=00	!	!	!	!LO:N:vis=00	!	!	!	!	!	!
4B-\	.	.	(8an\L	.	8cc#X\L	.	2.ryy	0.r	.	2.r	.	0.r	.	8cc#X\L	Mun-	2.r	.	2.r
.	.	.	8b-\J)	.	8dd\J	.	.	.	.	.	.	.	.	8dd\J	.	.	.	.
8B-'\L	.	.	4b-\	.	4dd\	.	.	.	.	.	.	.	.	4dd\	-di	.	.	.
8F'\	.	.	.	.	.	.	.	.	.	.	.	.	.	.	.	.	.	.
8D'\	.	.	4r	.	4r	.	.	.	.	.	.	.	.	4r	.	.	.	.
8BB-'\J	.	.	.	.	.	.	.	.	.	.	.	.	.	.	.	.	.	.
=10	=10	=10	=10	=10	=10	=10	=10	=10	=10	=10	=10	=10	=10	=10	=10	=10	=10	=10
4r	.	.	4r	.	4r	.	2.ryy	.	.	2.r	.	.	.	16b-\LL	do-	2.r	.	2.r
.	.	.	.	.	.	.	.	.	.	.	.	.	.	16cc\	.	.	.	.
.	.	.	.	.	.	.	.	.	.	.	.	.	.	16dd\	.	.	.	.
.	.	.	.	.	.	.	.	.	.	.	.	.	.	16cc\JJ	.	.	.	.
*2\right	*	*	*	*	*	*	*	*	*	*	*	*	*	*	*	*	*	*
2D\	x 65-	.	4f/	.	4b-/	.	.	.	.	.	.	.	.	4b-\	.	.	.	.
.	.	.	4f/	.	4a-X/	.	.	.	.	.	.	.	.	4a-\	-na	.	.	.
=11	=11	=11	=11	=11	=11	=11	=11	=11	=11	=11	=11	=11	=11	=11	=11	=11	=11	=11
4E-\	.	.	4e-/	.	8f#X/L	.	2.ryy	.	.	2.r	.	.	.	8f#X/L	e-	2.r	.	2.r
.	.	.	.	.	8g/J	.	.	.	.	.	.	.	.	8g/J	.	.	.	.
!	!	!	!	!	!LO:LB:g=original	!	!	!	!	!	!	!	!	!	!	!	!	!
!	!	!	!	!	!LO:TX:t=P:problem:mixed beam	!	!	!	!	!	!	!	!	!	!	!	!	!
4E-\	.	.	8e-/	.	8g/L	.	.	.	.	.	.	.	.	8g/	-is	.	.	.
.	.	.	8r	.	8ee-\	.	.	.	.	.	.	.	.	8gg\L	e-	.	.	.
4r	.	.	4r	.	8dd\	.	.	.	.	.	.	.	.	8ff\J	.	.	.	.
.	.	.	.	.	8cc\J	.	.	.	.	.	.	.	.	8ee-\	-is	.	.	.
!	!	!	!LO:LB:g=original	!	!	!	!	!	!	!	!	!	!	!LO:LB:g=original	!	!	!	!
=12	=12	=12	=12	=12	=12	=12	=12	=12	=12	=12	=12	=12	=12	=12	=12	=12	=12	=12
4r	.	.	2.r	.	8b-/L	.	2.ryy	.	.	2.r	.	.	.	8dd\L	Re-	2.r	.	2.r
.	.	.	.	.	8e-/J	.	.	.	.	.	.	.	.	8cc\J	.	.	.	.
4F\	6 4	.	.	.	4d/	.	.	.	.	.	.	.	.	4b-\	.	.	.	.
4FF/	5 n	.	.	.	16f/LL	.	.	.	.	.	.	.	.	16cc\LL	.	.	.	.
.	.	.	.	.	16e-/	.	.	.	.	.	.	.	.	16b-\JJ	.	.	.	.
.	.	.	.	.	16d/	.	.	.	.	.	.	.	.	16b-\LL	-qui-	.	.	.
.	.	.	.	.	16e-/JJ	.	.	.	.	.	.	.	.	16cc\JJ	.	.	.	.
=13	=13	=13	=13	=13	=13	=13	=13	=13	=13	=13	=13	=13	=13	=13	=13	=13	=13	=13
!	!	!	!	!	!LO:TX:t=P:problem:mixed beam	!	!	!LO:N:vis=00	!	!	!	!LO:N:vis=00	!	!	!	!	!	!
4BB-/	.	.	8r	.	8d/L	.	2.ryy	0.r	.	2.r	.	0.r	.	4b-\	-em	2.r	.	2.r
.	.	.	8dd\	.	8ff\J	.	.	.	.	.	.	.	.	.	.	.	.	.
4r	.	.	8dd\L	.	8ff\L	.	.	.	.	.	.	.	.	4r	.	.	.	.
.	.	.	8b-\	.	8dd\	.	.	.	.	.	.	.	.	.	.	.	.	.
4F\	x n	.	8an\	.	8cc\	.	.	.	.	.	.	.	.	4r	.	.	.	.
.	.	.	8cc\J	.	8ee-\J	.	.	.	.	.	.	.	.	.	.	.	.	.
=14	=14	=14	=14	=14	=14	=14	=14	=14	=14	=14	=14	=14	=14	=14	=14	=14	=14	=14
*	*	*	*	*	*	*	*	*	*	*	*	*	*	*2\right	*	*	*	*
4B-\	x 10	.	4b-\	.	4dd\	.	2.ryy	.	.	2.r	.	.	.	2ff\	do-	2.r	.	2.r
4d\	x 10	.	4f/	.	4b-\	.	.	.	.	.	.	.	.	.	.	.	.	.
4B-\	x 10	.	4f/	.	4dd\	.	.	.	.	.	.	.	.	4dd\	-na	.	.	.
=15	=15	=15	=15	=15	=15	=15	=15	=15	=15	=15	=15	=15	=15	=15	=15	=15	=15	=15
4c\	x 10	.	2f/	.	4ee-\	.	2.ryy	.	.	2.r	.	.	.	4ee-\	e-	2.r	.	2.r
4An\	x 10	.	.	.	4cc\	.	.	.	.	.	.	.	.	4cc\	.	.	.	.
4c\	x 10	.	4f/	.	4dd\	.	.	.	.	.	.	.	.	4dd\	-is	.	.	.
=16	=16	=16	=16	=16	=16	=16	=16	=16	=16	=16	=16	=16	=16	=16	=16	=16	=16	=16
2d\	x 10	.	4f/	.	4b-\	.	2.ryy	.	.	2.r	.	.	.	2ff\	do-	2.r	.	2.r
.	.	.	4f/	.	4b-\	.	.	.	.	.	.	.	.	.	.	.	.	.
4B-\	x 10	.	4f/	.	16ee-\LL	.	.	.	.	.	.	.	.	16ee-\LL	.	.	.	.
.	.	.	.	.	16dd\	.	.	.	.	.	.	.	.	16dd\JJ	.	.	.	.
.	.	.	.	.	16cc\	.	.	.	.	.	.	.	.	16cc\LL	-na	.	.	.
.	.	.	.	.	16dd\JJ	.	.	.	.	.	.	.	.	16dd\JJ	.	.	.	.
!LO:LB:g=original	!	!	!	!	!LO:LB:g=original	!	!	!	!	!	!	!	!	!	!	!	!	!
=17	=17	=17	=17	=17	=17	=17	=17	=17	=17	=17	=17	=17	=17	=17	=17	=17	=17	=17
!	!	!	!	!	!	!	!	!LO:N:vis=00	!	!	!	!LO:N:vis=0	!	!	!	!	!	!
4c\	x 10	.	2f/	.	4ee-\	.	2.ryy	0.r	.	2.r	.	1.r	.	4ee-\	e-	2.r	.	2.r
4An\	x 10	.	.	.	16dd\LL	.	.	.	.	.	.	.	.	16dd\LL	.	.	.	.
.	.	.	.	.	16cc\	.	.	.	.	.	.	.	.	16cc\JJ	.	.	.	.
.	.	.	.	.	16b-\	.	.	.	.	.	.	.	.	16b-\LL	.	.	.	.
.	.	.	.	.	16cc\JJ	.	.	.	.	.	.	.	.	16cc\JJ	.	.	.	.
4B-\	x 10	.	4f/	.	4dd\	.	.	.	.	.	.	.	.	4dd\	-is	.	.	.
=18	=18	=18	=18	=18	=18	=18	=18	=18	=18	=18	=18	=18	=18	=18	=18	=18	=18	=18
4E-\	.	.	4e-/	.	8f/L	.	2.ryy	.	.	2.r	.	.	.	8g\L	Re-	2.r	.	2.r
.	.	.	.	.	8e-/J	.	.	.	.	.	.	.	.	16ee-\L	.	.	.	.
.	.	.	.	.	.	.	.	.	.	.	.	.	.	16cc\JJ	.	.	.	.
.	.	.	.	.	.	.	.	.	.	.	.	.	.	8qqcc/	.	.	.	.
4F\	6 4	.	4r	.	4d/	.	.	.	.	.	.	.	.	4b-\	.	.	.	.
.	.	.	.	.	.	.	.	.	.	.	.	.	.	8qqb-/	.	.	.	.
4FF/	5 n	.	4r	.	4c/	.	.	.	.	.	.	.	.	4an\	-qui-	.	.	.
!	!	!	!	!	!	!	!	!	!	!	!	!	!	!LO:LB:g=original	!	!	!	!
=19	=19	=19	=19	=19	=19	=19	=19	=19	=19	=19	=19	=19	=19	=19	=19	=19	=19	=19
!	!	!	!	!	!	!	!	!	!	!	!	!LO:TX:a:t=Solo	!	!	!	!	!	!
4BB-/	.	.	8d/L	.	8d/L	.	2.ryy	.	.	2.r	.	4.f\	Ag-	4b-\	-em	2.r	.	2.r
.	.	.	8d/	.	8f/	.	.	.	.	.	.	.	.	.	.	.	.	.
4BB-/	.	.	8d/	.	8f/	.	.	.	.	.	.	.	.	4r	.	.	.	.
.	.	.	8d/	.	8f/	.	.	.	.	.	.	16g\LL	.	.	.	.	.	.
.	.	.	.	.	.	.	.	.	.	.	.	16f\JJ	.	.	.	.	.	.
4r	.	.	8d/	.	8f/	.	.	.	.	.	.	4b-\	-nus	4r	.	.	.	.
.	.	.	8d/J	.	8f/J	.	.	.	.	.	.	.	.	.	.	.	.	.
=20	=20	=20	=20	=20	=20	=20	=20	=20	=20	=20	=20	=20	=20	=20	=20	=20	=20	=20
!	!	!	!	!	!	!	!	!	!	!	!	!	!	!LO:N:vis=00	!	!	!	!
4F\	x n	.	8d/L	.	(8f/L	.	2.ryy	.	.	2.r	.	8f\L	de-	0.r	.	2.r	.	2.r
.	.	.	8c/	.	8e-/	.	.	.	.	.	.	8e-\J	.	.	.	.	.	.
4BB-/	.	.	8B-/	.	8d/)	.	.	.	.	.	.	8d\L	-i	.	.	.	.	.
.	.	.	8d/	.	8f'/	.	.	.	.	.	.	8f\J	.	.	.	.	.	.
8r	.	.	8d/	.	8f'/	.	.	.	.	.	.	8b-\L	qui	.	.	.	.	.
8BB-/	.	.	8d/J	.	8f'/J	.	.	.	.	.	.	8dd\J	.	.	.	.	.	.
!	!	!	!LO:LB:g=original	!	!	!	!	!	!	!	!	!	!	!	!	!	!	!
=21	=21	=21	=21	=21	=21	=21	=21	=21	=21	=21	=21	=21	=21	=21	=21	=21	=21	=21
!	!	!	!	!	!	!	!	!LO:N:vis=00	!	!	!	!	!	!	!	!	!	!
4F\	x n	.	8d/L	.	8f/L	.	2.ryy	0.r	.	2.r	.	8f\L	tol-	.	.	2.r	.	2.r
.	.	.	8c/	.	8e-/	.	.	.	.	.	.	8e-\J	.	.	.	.	.	.
4BB-/	.	.	8B-/	.	8d/	.	.	.	.	.	.	4d\	-lis	.	.	.	.	.
.	.	.	8d/	.	8f/	.	.	.	.	.	.	.	.	.	.	.	.	.
4D\	.	.	8d/	.	8f/	.	.	.	.	.	.	4f\	pec-	.	.	.	.	.
.	.	.	8d/J	.	8f/J	.	.	.	.	.	.	.	.	.	.	.	.	.
=22	=22	=22	=22	=22	=22	=22	=22	=22	=22	=22	=22	=22	=22	=22	=22	=22	=22	=22
4E-\	.	.	8e-/	.	8g/	.	2.ryy	.	.	2.r	.	8g\L	-ca-	.	.	2.r	.	2.r
.	.	.	8r	.	8r	.	.	.	.	.	.	16an\L	.	.	.	.	.	.
.	.	.	.	.	.	.	.	.	.	.	.	16b-\JJ	.	.	.	.	.	.
!	!	!	!	!	!	!	!	!	!	!	!	!LO:LB:g=original	!	!	!	!	!	!
4r	.	.	4r	.	4r	.	.	.	.	.	.	8cc\L	.	.	.	.	.	.
.	.	.	.	.	.	.	.	.	.	.	.	8dd\	.	.	.	.	.	.
8C\L	.	.	4e-/	.	4g/	.	.	.	.	.	.	8ee-\J	.	.	.	.	.	.
8E-\J	.	.	.	.	.	.	.	.	.	.	.	8cc\	-ta	.	.	.	.	.
!	!	!	!	!	!LO:LB:g=original	!	!	!	!	!	!	!	!	!	!	!	!	!
=23	=23	=23	=23	=23	=23	=23	=23	=23	=23	=23	=23	=23	=23	=23	=23	=23	=23	=23
.	.	.	.	.	.	.	.	.	.	.	.	8qqb-/	.	.	.	.	.	.
4F\	x n	.	4c/	.	4an/	.	2.ryy	.	.	2.r	.	4an\	mun-	.	.	2.r	.	2.r
4B-\	.	.	4d/	.	8b-/L	.	.	.	.	.	.	4b-\	-di	.	.	.	.	.
.	.	.	.	.	8f/J	.	.	.	.	.	.	.	.	.	.	.	.	.
4BB-/	.	.	4d/	.	4f/	.	.	.	.	.	.	4r	.	.	.	.	.	.
=24	=24	=24	=24	=24	=24	=24	=24	=24	=24	=24	=24	=24	=24	=24	=24	=24	=24	=24
!	!	!	!LO:N:vis=0	!	!LO:N:vis=0	!	!	!	!	!	!	!	!	!LO:N:vis=00	!	!	!	!
4r	.	.	1.r	.	1.r	.	2.ryy	.	.	2.r	.	4.b-\	do-	0.r	.	2.r	.	2.r
4r	.	.	.	.	.	.	.	.	.	.	.	.	.	.	.	.	.	.
.	.	.	.	.	.	.	.	.	.	.	.	8cc\	.	.	.	.	.	.
4BB-/	x -	.	.	.	.	.	.	.	.	.	.	[<4dd-X\	-na	.	.	.	.	.
=25	=25	=25	=25	=25	=25	=25	=25	=25	=25	=25	=25	=25	=25	=25	=25	=25	=25	=25
!	!	!	!	!	!	!	!	!LO:N:vis=00	!	!	!	!	!	!	!	!	!	!
2.En\	x 765	.	.	.	.	.	2.ryy	0.r	.	2.r	.	4dd-\]	.	.	.	2.r	.	2.r
.	.	.	.	.	.	.	.	.	.	.	.	4cc\	e-	.	.	.	.	.
.	.	.	.	.	.	.	.	.	.	.	.	4b-\	-is	.	.	.	.	.
!LO:LB:g=original	!	!	!	!	!	!	!	!	!	!	!	!	!	!	!	!	!	!
=26	=26	=26	=26	=26	=26	=26	=26	=26	=26	=26	=26	=26	=26	=26	=26	=26	=26	=26
4F\	x -	.	4r	.	4r	.	2.ryy	.	.	2.r	.	8a-\L	Re-	.	.	2.r	.	2.r
.	.	.	.	.	.	.	.	.	.	.	.	8g\J	.	.	.	.	.	.
.	.	.	.	.	.	.	.	.	.	.	.	8qqg/	.	.	.	.	.	.
4c\	.	.	4a-/	.	4ff\	.	.	.	.	.	.	4f\	.	.	.	.	.	.
.	.	.	.	.	.	.	.	.	.	.	.	8qqf/	.	.	.	.	.	.
4C/	x n	.	4g/	.	4een\	.	.	.	.	.	.	4en\	-qui-	.	.	.	.	.
=27	=27	=27	=27	=27	=27	=27	=27	=27	=27	=27	=27	=27	=27	=27	=27	=27	=27	=27
!LO:TX:t=P:problem:mixed beam	!	!	!	!	!	!	!	!	!	!	!	!	!	!	!	!	!	!
8F'\L	.	.	4a-/	.	4ff\	.	2.ryy	.	.	2.r	.	4f\	-em	.	.	2.r	.	2.r
8F'\	.	.	.	.	.	.	.	.	.	.	.	.	.	.	.	.	.	.
8C'/	.	.	4r	.	4r	.	.	.	.	.	.	4r	.	.	.	.	.	.
8AA-X'/J	.	.	.	.	.	.	.	.	.	.	.	.	.	.	.	.	.	.
4FF/	.	.	4r	.	4r	.	.	.	.	.	.	4r	.	.	.	.	.	.
=28	=28	=28	=28	=28	=28	=28	=28	=28	=28	=28	=28	=28	=28	=28	=28	=28	=28	=28
!	!	!	!	!	!LO:N:vis=0	!	!	!	!	!	!	!	!	!LO:N:vis=00	!	!	!	!
4r	.	.	2.r	.	1.r	.	2.ryy	.	.	2.r	.	4.a-\	do-	0.r	.	2.r	.	2.r
4r	.	.	.	.	.	.	.	.	.	.	.	.	.	.	.	.	.	.
.	.	.	.	.	.	.	.	.	.	.	.	8b-\	.	.	.	.	.	.
4AA-X/	.	.	.	.	.	.	.	.	.	.	.	4cc\	-na	.	.	.	.	.
=29	=29	=29	=29	=29	=29	=29	=29	=29	=29	=29	=29	=29	=29	=29	=29	=29	=29	=29
!	!	!	!	!	!	!	!	!LO:N:vis=00	!	!	!	!	!	!	!	!	!	!
2.D\	x 765	.	2.r	.	.	.	2.ryy	0.r	.	2.r	.	4cc\	e-	.	.	2.r	.	2.r
.	.	.	.	.	.	.	.	.	.	.	.	4b-\	.	.	.	.	.	.
.	.	.	.	.	.	.	.	.	.	.	.	4a-\	-is	.	.	.	.	.
!	!	!	!	!	!	!	!	!	!	!	!	!LO:LB:g=original	!	!	!	!	!	!
=30	=30	=30	=30	=30	=30	=30	=30	=30	=30	=30	=30	=30	=30	=30	=30	=30	=30	=30
4E-\	.	.	4r	.	4r	.	2.ryy	.	.	2.r	.	8g\L	Re-	.	.	2.r	.	2.r
.	.	.	.	.	.	.	.	.	.	.	.	8f\J	.	.	.	.	.	.
.	.	.	.	.	.	.	.	.	.	.	.	8qqf/	.	.	.	.	.	.
4B-\	.	.	4g/	.	4ee-X\	.	.	.	.	.	.	4e-\	.	.	.	.	.	.
.	.	.	.	.	.	.	.	.	.	.	.	8qqe-/	.	.	.	.	.	.
4BB-/	.	.	4f/	.	4dd\	.	.	.	.	.	.	4d\	-qui-	.	.	.	.	.
=31	=31	=31	=31	=31	=31	=31	=31	=31	=31	=31	=31	=31	=31	=31	=31	=31	=31	=31
8E-'/L	.	.	4g/	.	4ee-\	.	2.ryy	.	.	2.r	.	4e-\	-em	.	.	2.r	.	2.r
8e-'\	.	.	.	.	.	.	.	.	.	.	.	.	.	.	.	.	.	.
8B-'\	.	.	4r	.	4r	.	.	.	.	.	.	4r	.	.	.	.	.	.
8G'\J	.	.	.	.	.	.	.	.	.	.	.	.	.	.	.	.	.	.
4E-|\	.	.	4r	.	4r	.	.	.	.	.	.	4r	.	.	.	.	.	.
!	!	!	!LO:LB:g=original	!	!	!	!	!	!	!	!	!	!	!	!	!	!	!
=32	=32	=32	=32	=32	=32	=32	=32	=32	=32	=32	=32	=32	=32	=32	=32	=32	=32	=32
*	*	*	*	*	*	*	*	*	*	*	*	*2\right	*	*	*	*	*	*
!	!	!	!	!	!	!	!	!	!	!	!	!	!	!LO:N:vis=00	!	!	!	!
4E-\	5_ 10	.	4B-/	.	4g/	.	2.ryy	.	.	2.r	.	2b-\	do-	0.r	.	2.r	.	2.r
4G\	x 10	.	4B-/	.	4e-/	.	.	.	.	.	.	.	.	.	.	.	.	.
4E-\	x 10	.	4B-/	.	4g/	.	.	.	.	.	.	4g\	-na	.	.	.	.	.
=33	=33	=33	=33	=33	=33	=33	=33	=33	=33	=33	=33	=33	=33	=33	=33	=33	=33	=33
!	!	!	!	!	!	!	!	!LO:N:vis=00	!	!	!	!	!	!	!	!	!	!
4F\	x 10	.	2B-/	.	4a-/	.	2.ryy	0.r	.	2.r	.	4a-\	e-	.	.	2.r	.	2.r
4D\	x 10	.	.	.	4f/	.	.	.	.	.	.	4f\	.	.	.	.	.	.
4E-\	x 10	.	4B-/	.	4g/	.	.	.	.	.	.	4g\	-is	.	.	.	.	.
!	!	!	!	!	!LO:LB:g=original	!	!	!	!	!	!	!	!	!	!	!	!	!
=34	=34	=34	=34	=34	=34	=34	=34	=34	=34	=34	=34	=34	=34	=34	=34	=34	=34	=34
4E-\	x 10	.	4B-/	.	4g/	.	2.ryy	.	.	2.r	.	2b-\	do-	.	.	2.r	.	2.r
4G\	x 10	.	4B-/	.	4e-/	.	.	.	.	.	.	.	.	.	.	.	.	.
4E-\	x 10	.	4B-/	.	4g/	.	.	.	.	.	.	16a-\LL	.	.	.	.	.	.
.	.	.	.	.	.	.	.	.	.	.	.	16g\JJ	.	.	.	.	.	.
.	.	.	.	.	.	.	.	.	.	.	.	16f\LL	-na	.	.	.	.	.
.	.	.	.	.	.	.	.	.	.	.	.	16g\JJ	.	.	.	.	.	.
!LO:LB:g=original	!	!	!	!	!	!	!	!	!	!	!	!	!	!	!	!	!	!
=35	=35	=35	=35	=35	=35	=35	=35	=35	=35	=35	=35	=35	=35	=35	=35	=35	=35	=35
4F\	x 10	.	2B-/	.	4a-/	.	2.ryy	.	.	2.r	.	4a-\	e-	.	.	2.r	.	2.r
4D\	x 10	.	.	.	4f/	.	.	.	.	.	.	16g\LL	.	.	.	.	.	.
.	.	.	.	.	.	.	.	.	.	.	.	16f\	.	.	.	.	.	.
.	.	.	.	.	.	.	.	.	.	.	.	16e-\	.	.	.	.	.	.
.	.	.	.	.	.	.	.	.	.	.	.	16f\JJ	.	.	.	.	.	.
4E-\	x 10	.	4B-/	.	4g/	.	.	.	.	.	.	4g\	-is	.	.	.	.	.
=36	=36	=36	=36	=36	=36	=36	=36	=36	=36	=36	=36	=36	=36	=36	=36	=36	=36	=36
!	!	!	!	!	!	!	!	!	!	!	!	!	!	!LO:N:vis=00	!	!	!	!
4A-\	.	.	4A-/	.	4c/	.	2.ryy	.	.	2.r	.	8c\L	Re-	0.r	.	2.r	.	2.r
.	.	.	.	.	.	.	.	.	.	.	.	16a-\L	.	.	.	.	.	.
.	.	.	.	.	.	.	.	.	.	.	.	16f\JJ	.	.	.	.	.	.
.	.	.	.	.	.	.	.	.	.	.	.	8qqf/	.	.	.	.	.	.
4B-\	x 43	.	4r	.	4r	.	.	.	.	.	.	4e-\	.	.	.	.	.	.
.	.	.	.	.	.	.	.	.	.	.	.	8qqe-/	.	.	.	.	.	.
4BB-/	.	.	4r	.	4r	.	.	.	.	.	.	4d\	-qui-	.	.	.	.	.
!	!	!	!	!	!	!	!	!	!	!	!	!LO:LB:g=original	!	!	!	!	!	!
=37	=37	=37	=37	=37	=37	=37	=37	=37	=37	=37	=37	=37	=37	=37	=37	=37	=37	=37
!	!	!	!	!	!	!	!	!LO:N:vis=00	!	!	!	!	!	!	!	!	!	!
4E-\	.	.	8r	.	8r	.	2.ryy	0.r	.	2.r	.	4e-\	-em	.	.	2.r	.	2.r
!	!	!	!	!LO:DY:B:i:b:rj:t=m&colon;for	!	!LO:DY:B:i:b:rj:t=mezzofor	!	!	!	!	!	!	!	!	!	!	!	!
.	.	.	8g/L	mf	8b-/L	mf	.	.	.	.	.	.	.	.	.	.	.	.
4r	.	.	8e-/	.	8g/	.	.	.	.	.	.	4r	.	.	.	.	.	.
.	.	.	8G/	.	8e-/	.	.	.	.	.	.	.	.	.	.	.	.	.
4BB-/	.	.	8A-/	.	8f/	.	.	.	.	.	.	4r	.	.	.	.	.	.
.	.	.	8A-/J	.	8f/J	.	.	.	.	.	.	.	.	.	.	.	.	.
=38	=38	=38	=38	=38	=38	=38	=38	=38	=38	=38	=38	=38	=38	=38	=38	=38	=38	=38
!	!	!	!	!	!	!	!	!	!	!	!	!LO:N:vis=00	!	!	!	!	!	!
4E-\	.	.	8G/L	.	(8e-/L	.	2.ryy	.	.	2.r	.	0.r	.	.	.	2.r	.	2.r
.	.	.	8g/	.	8b-/	.	.	.	.	.	.	.	.	.	.	.	.	.
4r	.	.	8e-/	.	8g/	.	.	.	.	.	.	.	.	.	.	.	.	.
.	.	.	8G/	.	8e-/)	.	.	.	.	.	.	.	.	.	.	.	.	.
4BB-/	.	.	8A-/	.	8f'/	.	.	.	.	.	.	.	.	.	.	.	.	.
.	.	.	8A-/J	.	8f'/J	.	.	.	.	.	.	.	.	.	.	.	.	.
=39	=39	=39	=39	=39	=39	=39	=39	=39	=39	=39	=39	=39	=39	=39	=39	=39	=39	=39
4E-\	.	.	8G/L	.	8e-/L	.	2.ryy	.	.	2.r	.	.	.	.	.	2.r	.	2.r
.	.	.	8b-/	.	8b-/	.	.	.	.	.	.	.	.	.	.	.	.	.
4r	.	.	8g/	.	8g/	.	.	.	.	.	.	.	.	.	.	.	.	.
.	.	.	8e-/	.	8e-/	.	.	.	.	.	.	.	.	.	.	.	.	.
4G\	.	.	8d-X/	.	8d-X/	.	.	.	.	.	.	.	.	.	.	.	.	.
.	.	.	8Bn/J	.	8Bn/J	.	.	.	.	.	.	.	.	.	.	.	.	.
!	!	!	!LO:LB:g=original	!	!LO:LB:g=original	!	!	!	!	!	!	!	!	!	!	!	!	!
=40	=40	=40	=40	=40	=40	=40	=40	=40	=40	=40	=40	=40	=40	=40	=40	=40	=40	=40
!	!	!	!	!	!	!	!	!	!	!	!	!	!	!LO:N:vis=00	!	!	!	!
4A-\	.	.	8c/L	.	8c/L	.	2.ryy	.	.	2.r	.	.	.	0.r	.	2.r	.	2.r
.	.	.	8f/	.	8f/	.	.	.	.	.	.	.	.	.	.	.	.	.
8G\L	x 6|	.	8en/	.	8en/	.	.	.	.	.	.	.	.	.	.	.	.	.
8B-\	x 6	.	8g/	.	8g/	.	.	.	.	.	.	.	.	.	.	.	.	.
8A-\	x 6	.	8f/	.	8f/	.	.	.	.	.	.	.	.	.	.	.	.	.
8En\J	x 3	.	8g/J	.	8g/J	.	.	.	.	.	.	.	.	.	.	.	.	.
=41	=41	=41	=41	=41	=41	=41	=41	=41	=41	=41	=41	=41	=41	=41	=41	=41	=41	=41
!	!	!	!	!	!	!	!	!LO:N:vis=00	!	!	!	!	!	!	!	!	!	!
4F\	x 1	.	8a-/L	.	8a-/L	.	2.ryy	0.r	.	2.r	.	.	.	.	.	2.r	.	2.r
.	.	.	8cc/	.	8cc/	.	.	.	.	.	.	.	.	.	.	.	.	.
4r	.	.	8a-/	.	8a-/	.	.	.	.	.	.	.	.	.	.	.	.	.
.	.	.	8g/	.	8g/	.	.	.	.	.	.	.	.	.	.	.	.	.
4r	.	.	8f/	.	8f/	.	.	.	.	.	.	.	.	.	.	.	.	.
.	.	.	8e-/J	.	8e-/J	.	.	.	.	.	.	.	.	.	.	.	.	.
=42	=42	=42	=42	=42	=42	=42	=42	=42	=42	=42	=42	=42	=42	=42	=42	=42	=42	=42
!	!	!	!LO:TX:t=P:problem:skreślone 4 nuty	!	!	!	!	!	!	!	!	!LO:N:vis=0	!	!	!	!	!	!
8BB-'/L	.	.	8d/L	.	8d/L	.	2.ryy	.	.	2.r	.	1.r	.	.	.	2.r	.	2.r
8C'/	.	.	8B-/	.	8e-/	.	.	.	.	.	.	.	.	.	.	.	.	.
8D'/	.	.	8B-/	.	8f/	.	.	.	.	.	.	.	.	.	.	.	.	.
8E-'/	.	.	8B-/J	.	8g/J	.	.	.	.	.	.	.	.	.	.	.	.	.
8F'/	.	.	4B-/	.	4a-/	.	.	.	.	.	.	.	.	.	.	.	.	.
8D'/J	.	.	.	.	.	.	.	.	.	.	.	.	.	.	.	.	.	.
=43	=43	=43	=43	=43	=43	=43	=43	=43	=43	=43	=43	=43	=43	=43	=43	=43	=43	=43
8E-'\L	.	.	8e-/L	.	8g\L	.	2.ryy	.	.	2.r	.	.	.	.	.	2.r	.	2.r
8F'\	.	.	8e-/	.	8a-\	.	.	.	.	.	.	.	.	.	.	.	.	.
8G'\	.	.	8e-/	.	8b-\	.	.	.	.	.	.	.	.	.	.	.	.	.
8A-'\	.	.	8e-/J	.	8cc\J	.	.	.	.	.	.	.	.	.	.	.	.	.
!	!	!	!LO:TX:t=P:problem:mixed beam	!	!	!	!	!	!	!	!	!	!	!	!	!	!	!
8B-'\	.	.	8e-/L	.	4dd-X\	.	.	.	.	.	.	.	.	.	.	.	.	.
8G'\J	.	.	8b-\J	.	.	.	.	.	.	.	.	.	.	.	.	.	.	.
!LO:LB:g=original	!	!	!	!	!	!	!	!	!	!	!	!	!	!	!	!	!	!
=44	=44	=44	=44	=44	=44	=44	=44	=44	=44	=44	=44	=44	=44	=44	=44	=44	=44	=44
!	!	!	!	!	!LO:SIC:v:s=8qqdd-/	!	!	!	!	!	!	!	!	!	!	!	!	!
.	.	.	8qqb-/	.	8qqdd/	.	.	.	.	.	.	.	.	.	.	.	.	.
!	!	!	!	!	!	!	!	!	!	!	!	!LO:TX:t=P:problem:brak taktu	!	!	!	!	!	!
4A-\	.	.	8a-/L	.	8cc\L	.	2.ryy	.	.	2.r	.	2.r	.	2.r	.	2.r	.	2.r
.	.	.	16g/L	.	16b-\L	.	.	.	.	.	.	.	.	.	.	.	.	.
.	.	.	16f/JJ	.	16a-\JJ	.	.	.	.	.	.	.	.	.	.	.	.	.
4B-\	.	.	4e-/	.	4g/	.	.	.	.	.	.	.	.	.	.	.	.	.
4BB-/	.	.	4d/	.	4f/	.	.	.	.	.	.	.	.	.	.	.	.	.
=45	=45	=45	=45	=45	=45	=45	=45	=45	=45	=45	=45	=45	=45	=45	=45	=45	=45	=45
!LO:TX:a:rj:t=Tutti	!	!	!LO:TX:a:t=Tutti	!	!	!	!	!LO:TX:a:rj:t=T&colon;	!	!	!	!LO:TX:a:t=Tutti	!	!LO:TX:a:t=Tutti	!	!	!	!
4E-\	.	.	4e-/	.	4e-/	.	2.ryy	4r	.	4r	.	4r	.	4r	.	4r	.	4r
!	!	!	!	!LO:DY:B:i:b:t=for	!LO:TX:a:t=Tutti	!LO:DY:B:i:b:t=for	!	!	!	!LO:TX:a:t=Tutti	!	!	!	!	!	!LO:TX:a:t=Tutti	!LO:DY:B:i:b:t=for	!LO:TX:a:t=Tutti
4E-\	.	.	4g/	f	4ee-\	f	.	4E-\	A-	4B-\	A-	4g\	A-	4ee-\	A-	4e-\	f	4g\
4G\	.	.	4g/	.	4ee-\	.	.	4E-\	-gnus	4B-\	-gnus	4g\	-gnus	4ee-\	-gnus	4e-\	.	4g\
!	!	!	!LO:LB:g=original	!	!LO:LB:g=original	!	!	!	!	!	!	!	!	!	!	!	!	!
=46	=46	=46	=46	=46	=46	=46	=46	=46	=46	=46	=46	=46	=46	=46	=46	=46	=46	=46
4A-\	4 2	.	4f/	.	4dd\	.	2.ryy	4A-\	De-	4B-\	de-	4f\	De-	4dd\	De-	4B-/	.	4f\
!	!	!	!LO:TX:t=P:problem:mixed beam	!	!	!	!	!	!	!	!	!	!	!	!	!	!	!
4G\	x 6	.	8g/L	.	8ee-\L	.	.	4G\	-i	4B-\	-i	4g\	-i	4ee-\	-i	4e-\	.	4g\
.	.	.	8gg\	.	8bb-\	.	.	.	.	.	.	.	.	.	.	.	.	.
4r	.	.	8ee-\	.	8gg\	.	.	8r	.	8r	.	8r	.	8r	.	4r	.	4r
.	.	.	8g/J	.	8ee-\J	.	.	8G\	qui	8B-\	qui	8g\	qui	8ee-\	qui	.	.	.
=47	=47	=47	=47	=47	=47	=47	=47	=47	=47	=47	=47	=47	=47	=47	=47	=47	=47	=47
4A-\	4 2	.	8.f/L	.	8.dd\L	.	2.ryy	4A-\	tol-	4B-\	tol-	4f\	tol-	4dd\	tol-	4B-/	.	4f\
.	.	.	32g/LL	.	32ee-\LL	.	.	.	.	.	.	.	.	.	.	.	.	.
.	.	.	32a-/JJJ	.	32ff\JJJ	.	.	.	.	.	.	.	.	.	.	.	.	.
!	!	!	!LO:TX:t=P:problem:mixed beam	!	!	!	!	!	!	!	!	!	!	!	!	!	!	!
4G\	x 6	.	8g/L	.	8ee-\L	.	.	4G\	-lis	4B-\	-lis	4g\	-lis	4ee-\	-lis	4e-\	.	4g\
.	.	.	8gg\J	.	8bb-\J	.	.	.	.	.	.	.	.	.	.	.	.	.
.	.	.	8qqff/	.	8qqaa-/	.	.	.	.	.	.	.	.	.	.	.	.	.
4r	.	.	8ee-\L	.	8gg\L	.	.	8r	.	8r	.	8r	.	8r	.	4r	.	4r
.	.	.	8qqa-/	.	8qqff/	.	.	.	.	.	.	.	.	.	.	.	.	.
*	*	*	*	*	*	*	*	*	*	*	*	*	*ij	*	*ij	*	*	*
.	.	.	8g\J	.	8ee-\J	.	.	8G\	qui	8B-\	qui	8g\	qui	8ee-\	qui	.	.	.
!	!	!	!	!	!	!	!	!LO:LB:g=original	!	!	!	!	!	!	!	!	!	!
=48	=48	=48	=48	=48	=48	=48	=48	=48	=48	=48	=48	=48	=48	=48	=48	=48	=48	=48
4A-\	4 2	.	8.f/L	.	8.dd\L	.	2.ryy	4A-\	tol-	4B-\	tol-	4f\	tol-	4dd\	tol-	4B-/	.	4f\
.	.	.	32g/LL	.	32ee-\LL	.	.	.	.	.	.	.	.	.	.	.	.	.
.	.	.	32a-/JJJ	.	32ff\JJJ	.	.	.	.	.	.	.	.	.	.	.	.	.
4G\	x 6	.	8g/L	.	8ee-\L	.	.	4G\	-lis	4B-\	-lis	4g\	-lis	4ee-\	-lis	4e-\	.	4g\
*	*	*	*	*	*	*	*	*	*	*	*	*	*Xij	*	*Xij	*	*	*
.	.	.	8b-/J	.	8gg\	.	.	.	.	.	.	.	.	.	.	.	.	.
!	!	!	!	!	!	!	!	!	!	!LO:LB:g=original	!	!	!	!	!	!	!	!
4r	.	.	4g/	.	8ee-\	.	.	4r	.	8r	.	8r	.	8r	.	4g\	.	4b-\
.	.	.	.	.	8b-\J	.	.	.	.	8e-\	pec-	8g\	pec-	8b-\	pec-	.	.	.
=49	=49	=49	=49	=49	=49	=49	=49	=49	=49	=49	=49	=49	=49	=49	=49	=49	=49	=49
4E-\	.	.	4g/	.	4b-/	.	2.ryy	4E-\	pec-	(4e-\	-ca-	4g\	-ca-	4b-\	-ca-	4g\	.	4b-\
4A-\	8 6	.	4f/	.	4a-/	.	.	4A-\	-ca-	4c\)	.	4f\	.	4a-\	.	4f\	.	4a-\
4An\	7 5	.	4e-/	.	4g/	.	.	4An\	-ta	4c\	-ta	4e-\	-ta	4g\	-ta	4e-\	.	4g\
!	!	!	!	!	!	!	!	!	!	!	!	!	!	!LO:LB:g=original	!	!	!	!LO:LB:g=original
=50	=50	=50	=50	=50	=50	=50	=50	=50	=50	=50	=50	=50	=50	=50	=50	=50	=50	=50
!	!	!	!	!	!	!	!	!	!	!	!	!	!	!LO:TX:a:t=t	!	!	!	!
4B-\	6 4	.	4e-/	.	4g/	.	2.ryy	4B-\	Mun-	4B-\	mun-	4e-\	mun-	4g/	mun-	4e-\	.	4g'\
4BB-/	5 3	.	4d/	.	4f/	.	.	4BB-/	-di	4B-\	-di	4d\	-di	4f/	-di	8B-/L	.	8f'\L
.	.	.	.	.	.	.	.	.	.	.	.	.	.	.	.	8B-/J	.	8f'\J
4r	.	.	4r	.	4r	.	.	4r	.	4r	.	4r	.	4r	.	4B-/	.	4f'\
!	!	!	!	!	!	!	!	!	!	!	!	!LO:LB:g=original	!	!	!	!	!	!
=51	=51	=51	=51	=51	=51	=51	=51	=51	=51	=51	=51	=51	=51	=51	=51	=51	=51	=51
*	*	*	*	*	*	*	*	*	*	*2\right	*	*	*	*	*	*	*	*
2.BB-/	5 3	.	4.d/	.	4.f/	.	2.ryy	2BB-/	do-	2B-\	do-	4.d\	do-	4.f/	do-	4B-/	.	4B-/
.	-6 4	.	.	.	.	.	.	.	.	.	.	.	.	.	.	4B-/	.	4B-/
.	5 3	.	8e-/	.	8g-X/	.	.	.	.	.	.	8e-\	.	8g-X/	.	.	.	.
.	.	.	4d/	.	4f/	.	.	4BB-/	-na	4B-\	-na	4d\	-na	4f/	-na	4B-/	.	4B-/
=52	=52	=52	=52	=52	=52	=52	=52	=52	=52	=52	=52	=52	=52	=52	=52	=52	=52	=52
2.BB-/	5 3	.	2d/	.	4f/	.	2.ryy	2BB-/	e-	2B-\	e-	2d\	e-	4f/	e-	2.B-/	.	2.B-/
.	-6 4	.	.	.	4b-/	.	.	.	.	.	.	.	.	4b-\	.	.	.	.
.	5 3	.	4f/	.	4a-/	.	.	4BB-/	-is	4B-\	-is	4f\	-is	4a-\	-is	.	.	.
!LO:LB:g=original	!	!	!LO:LB:g=original	!	!LO:LB:g=original	!	!	!	!	!	!	!	!	!	!	!	!	!
=53	=53	=53	=53	=53	=53	=53	=53	=53	=53	=53	=53	=53	=53	=53	=53	=53	=53	=53
4BB-/	-6_ 4_	.	4.e-/	.	4.g-X/	.	2.ryy	4.BB-/	Re-	4.B-\	Re-	4.e-\	Re-	4.g-X/	Re-	4B-/	.	4B-/
4BB-/	.	.	.	.	.	.	.	.	.	.	.	.	.	.	.	4B-/	.	4B-/
.	.	.	8e-/	.	8g-/	.	.	8BB-/	-qui-	8B-\	-qui-	8e-\	-qui-	8g-/	-qui-	.	.	.
4BB-/	5 3	.	4d/	.	4f/	.	.	4BB-/	-em	4B-\	-em	4d\	-em	4f/	-em	4B-/	.	4B-/
=54	=54	=54	=54	=54	=54	=54	=54	=54	=54	=54	=54	=54	=54	=54	=54	=54	=54	=54
2.BB-/	5 3	.	2d/	.	4f/	.	2.ryy	2BB-/	Sem-	2B-\	Sem-	2d\	Sem-	4f/	Sem-	2.B-/	.	2.B-/
.	8 -6	.	.	.	4b-/	.	.	.	.	.	.	.	.	4b-\	.	.	.	.
.	7 5	.	4f/	.	4a-/	.	.	4BB-/	-pi-	4B-\	-pi-	4f\	-pi-	4a-\	-pi-	.	.	.
!	!	!	!	!	!	!	!	!	!	!	!	!	!	!	!	!LO:LB:g=original	!	!
=55	=55	=55	=55	=55	=55	=55	=55	=55	=55	=55	=55	=55	=55	=55	=55	=55	=55	=55
.	.	.	.	.	8qqa-/	.	.	.	.	.	.	8qqf/	.	8qqa-/	.	.	.	.
4BB-/	-6_ 4_	.	2e-/	.	2g-X/	.	2.ryy	2BB-/	-ter-	2B-\	-ter-	2e-\	-ter-	2g-X/	-ter-	2.B-/	.	2.B-/
4BB-/	.	.	.	.	.	.	.	.	.	.	.	.	.	.	.	.	.	.
4BB-/	5 3	.	4d/	.	4f/	.	.	4BB-/	-nam	4B-\	-nam	4d\	-nam	4f/	-nam	.	.	.
!	!	!	!	!	!	!	!	!LO:LB:g=original	!	!LO:LB:g=original	!	!	!	!	!	!	!	!
=56	=56	=56	=56	=56	=56	=56	=56	=56	=56	=56	=56	=56	=56	=56	=56	=56	=56	=56
*	*	*	*	*	*	*	*2\right	*2\right	*	*	*	*	*	*	*	*	*	*
4E-\	5_ 3_	.	4.g/	.	4.b-\	.	2.ryy	2E-\	do-	2E-/	do-	4.g\	do-	4.b-\	do-	4E-/	.	4e-\
4E-\	6 4	.	.	.	.	.	.	.	.	.	.	.	.	.	.	4E-/	.	4e-\
.	.	.	8a-/	.	8cc\	.	.	.	.	.	.	8a-\	.	8cc\	.	.	.	.
4E-\	7 5	.	4g/	.	4b-\	.	.	4E-\	-na	4E-/	-na	4g\	-na	4b-\	-na	4E-/	.	4e-\
!	!	!	!	!	!	!	!	!	!	!	!	!	!	!LO:PB:g=original	!	!	!	!
=57	=57	=57	=57	=57	=57	=57	=57	=57	=57	=57	=57	=57	=57	=57	=57	=57	=57	=57
*	*	*	*	*	*	*	*	*	*	*	*	*	*	*	*	*	*	*2\right
2.E-\	5 3	.	2g/	.	4b-\	.	2.ryy	2E-\	e-	2E-/	e-	2g\	e-	4b-\	e-	2.E-/	.	2.e-\
.	8 6	.	.	.	4ee-\	.	.	.	.	.	.	.	.	4ee-\	.	.	.	.
.	7 5	.	4b-/	.	4dd-X\	.	.	4E-\	-is	4E-/	-is	4b-\	-is	4dd-X\	-is	.	.	.
=58	=58	=58	=58	=58	=58	=58	=58	=58	=58	=58	=58	=58	=58	=58	=58	=58	=58	=58
4E-\	6_ 4_	.	4.a-/	.	4.cc\	.	2.ryy	4.E-\	Re-	4.E-/	Re-	4.a-\	Re-	4.cc\	Re-	4E-/	.	4e-\
4E-\	.	.	.	.	.	.	.	.	.	.	.	.	.	.	.	4E-/	.	4e-\
.	.	.	8a-/	.	8cc\	.	.	8E-\	-qui-	8E-/	-qui-	8a-\	-qui-	8cc\	-qui-	.	.	.
4E-\	5 3	.	4g/	.	4b-\	.	.	4E-\	-em	4E-/	-em	4g\	-em	4b-\	-em	4E-/	.	4e-\
=59	=59	=59	=59	=59	=59	=59	=59	=59	=59	=59	=59	=59	=59	=59	=59	=59	=59	=59
!LO:TX:a:t=Tasto	!	!	!	!	!	!	!	!	!	!	!	!	!	!	!	!	!	!
2.E-\	5 3	.	2g/	.	4b-\	.	2.ryy	2E-\	Sem-	2E-/	Sem-	2g\	Sem-	4b-\	Sem-	2.E-/	.	2.e-\
.	8 6	.	.	.	4ee-\	.	.	.	.	.	.	.	.	4ee-\	.	.	.	.
.	7 5	.	4b-/	.	4dd-X\	.	.	4E-\	-pi-	4E-/	-pi-	4b-\	-pi-	4dd-X\	-pi-	.	.	.
!	!	!	!	!	!	!	!	!	!	!	!	!LO:PB:g=original	!	!	!	!	!	!
=60	=60	=60	=60	=60	=60	=60	=60	=60	=60	=60	=60	=60	=60	=60	=60	=60	=60	=60
!	!	!	!	!	!LO:SIC:v:s=8qqdd-/	!	!	!	!	!	!	!	!	!LO:SIC:v:s=8qqdd-/	!	!	!	!
.	.	.	8qqb-/	.	8qqdd/	.	.	.	.	.	.	8qqa-/	.	8qqdd/	.	.	.	.
4E-\	6_ 4_	.	2a-/	.	2cc\	.	2.ryy	2E-\	-ter-	2E-/	-ter-	2a-\	-ter-	2cc\	-ter-	2.E-/	.	2.e-\
4E-\	.	.	.	.	.	.	.	.	.	.	.	.	.	.	.	.	.	.
4E-\	5 3	.	4g/	.	4b-\	.	.	4E-\	-nam.	4E-/	-nam	4g\	-nam	4b-\	-nam	.	.	.
!LO:LB:g=original	!	!	!	!	!LO:LB:g=original	!	!	!	!	!	!	!	!	!	!	!	!	!LO:LB:g=original
=61	=61	=61	=61	=61	=61	=61	=61	=61	=61	=61	=61	=61	=61	=61	=61	=61	=61	=61
!	!	!	!	!	!	!	!	!LO:N:vis=0	!	!LO:N:vis=0	!	!LO:N:vis=0	!	!LO:N:vis=0	!	!	!	!
4F\	.	.	4B-/	.	4a-/	.	2.ryy	1.r	.	1.r	.	1.r	.	1.r	.	4B-/	.	4f\
*	*	*	*	*	*2\right	*	*	*	*	*	*	*	*	*	*	*	*	*
4D\	.	.	2a-/	.	2ff\	.	.	.	.	.	.	.	.	.	.	4f\	.	4a-\
4BB-\	.	.	.	.	.	.	.	.	.	.	.	.	.	.	.	4r	.	4r
=62	=62	=62	=62	=62	=62	=62	=62	=62	=62	=62	=62	=62	=62	=62	=62	=62	=62	=62
4E-\	.	.	4B-/	.	4g/	.	2.ryy	.	.	.	.	.	.	.	.	4G/	.	4e-\
2G\	.	.	4g/	.	4ee-\	.	.	.	.	.	.	.	.	.	.	4e-\	.	4g\
.	.	.	4b-/	.	4dd-X\	.	.	.	.	.	.	.	.	.	.	4r	.	4r
!	!	!	!LO:LB:g=original	!	!	!	!	!	!	!	!	!	!	!	!	!	!	!
=63	=63	=63	=63	=63	=63	=63	=63	=63	=63	=63	=63	=63	=63	=63	=63	=63	=63	=63
!	!	!	!	!	!LO:SIC:v:s=8qqdd-/	!	!	!	!	!	!	!	!	!	!	!	!	!
.	.	.	8qqb-/	.	8qqdd/	.	.	.	.	.	.	.	.	.	.	.	.	.
4A-\	.	.	8a-/L	.	8cc\L	.	2.ryy	8A-\	Sem-	8c\	Sem-	8a-\	Sem-	8cc\	Sem-	4r	.	4r
.	.	.	16g/L	.	16b-\L	.	.	8A-\	-pi-	8c\	-pi-	16g\LL	-pi-	16b-\LL	-pi-	.	.	.
.	.	.	16f/JJ	.	16a-\JJ	.	.	.	.	.	.	16f\JJ	.	16a-\JJ	.	.	.	.
4B-\	.	.	4e-/	.	4g/	.	.	4B-\	-ter-	2B-\	-ter-	4e-\	-ter-	4g\	-ter-	4e-\	.	4g\
4BB-/	.	.	4d/	.	4f/	.	.	4BB-/	.	.	.	4d\	.	4f\	.	4B-/	.	4f\
=64	=64	=64	=64	=64	=64	=64	=64	=64	=64	=64	=64	=64	=64	=64	=64	=64	=64	=64
!	!	!	!	!	!	!	!	!	!	!	!	!	!	!	!	!LO:TX:a:t=Solo	!	!LO:TX:a:t=Solo.
4E-\	.	.	8e-/	.	8r	.	2.ryy	4E-\	-nam	4B-\	-nam.	4e-\	-nam.	4g\	-nam.	8e-\L	.	8g\L
*	*	*	*cue	*	*cue	*	*	*	*	*	*	*	*	*	*	*	*	*
!	!	!	!LO:TX:a:t=Corni	!LO:DY:B:i:b:t=pia	!LO:TX:a:t=Corni	!	!	!	!	!	!	!	!	!	!	!	!	!
.	.	.	8g/L	p	8b-/L	.	.	.	.	.	.	.	.	.	.	8g\	.	8b-\
4r	.	.	8g/	.	8b-/	.	.	4r	.	4r	.	4r	.	4r	.	8g\	.	8b-\
.	.	.	8e-/	.	8g/	.	.	.	.	.	.	.	.	.	.	8e-\	.	8g\
4BB-/	.	.	8d/	.	8f/	.	.	4r	.	4r	.	4r	.	4r	.	8B-\	.	8f\
.	.	.	8f/J	.	8a-/J	.	.	.	.	.	.	.	.	.	.	8f\J	.	8a-\J
=65	=65	=65	=65	=65	=65	=65	=65	=65	=65	=65	=65	=65	=65	=65	=65	=65	=65	=65
!	!	!	!	!	!	!	!	!LO:N:vis=0	!	!LO:N:vis=0	!	!LO:N:vis=0	!	!LO:N:vis=0	!	!	!	!
4E-\	.	.	8e-/L	.	8g/L	.	2.ryy	1.r	.	1.r	.	1.r	.	1.r	.	8e-\L	.	8g\L
.	.	.	8g/	.	8g/	.	.	.	.	.	.	.	.	.	.	8g\	.	8b-\
4r	.	.	8g/	.	8g/	.	.	.	.	.	.	.	.	.	.	8g\	.	8b-\
.	.	.	8e-/	.	8e-/	.	.	.	.	.	.	.	.	.	.	8e-\	.	8g\
4BB-/	.	.	8d/	.	8d/	.	.	.	.	.	.	.	.	.	.	8B-\	.	8f\
.	.	.	8f/J	.	8f/J	.	.	.	.	.	.	.	.	.	.	8f\J	.	8a-\J
=66	=66	=66	=66	=66	=66	=66	=66	=66	=66	=66	=66	=66	=66	=66	=66	=66	=66	=66
*	*	*	*Xcue	*	*Xcue	*	*	*	*	*	*	*	*	*	*	*	*	*
!	!	!	!LO:TX:a:t=Violini	!	!LO:TX:a:t=Violini	!	!	!	!	!	!	!	!	!	!	!	!	!
4E-\	.	.	4G/ 4e-	.	4G/ 4e-	.	2.ryy	.	.	.	.	.	.	.	.	4e-\	.	4g\
4E-\	.	.	4G/ 4e-	.	4G/ 4e-	.	.	.	.	.	.	.	.	.	.	4e-\	.	4g\
4E-\	.	.	4G/ 4e-	.	4G/ 4e-	.	.	.	.	.	.	.	.	.	.	4e-\	.	4g\
=67	=67	=67	=67	=67	=67	=67	=67	=67	=67	=67	=67	=67	=67	=67	=67	=67	=67	=67
4E-\	.	.	4G/ 4e-	.	4G/ 4e-	.	2.ryy	2.r	.	2.r	.	2.r	.	2.r	.	4e-\	.	4g\
4r	.	.	4r	.	4r	.	.	.	.	.	.	.	.	.	.	4r	.	4r
!LO:TX:b:t=Lux aeterna Volto Citto	!	!	!LO:TX:b:t=Lux aeterna Verte	!	!LO:TX:b:t=Lux aeterna verte foluim	!	!	!	!	!	!	!	!	!	!	!	!	!
4r	.	.	4r	.	4r	.	.	.	.	.	.	.	.	.	.	4r	.	4r
==	==	==	==	==	==	==	==	==	==	==	==	==	==	==	==	==	==	==
*-	*-	*-	*-	*-	*-	*-	*-	*-	*-	*-	*-	*-	*-	*-	*-	*-	*-	*-
!!!system-decoration: [g1][g2][g3][g4]
!!!RDF**kern: | = vertical stroke
!!!AIN: 1 alto 3 empty 1 organ 1 tenor 3 violn 1 vox
!!!ENC: Katarzyna Serwa
!!!END: 2021-10-30
!!!ENC: Andrzej Gręziak
!!!END: 2020-08-18
!!!RDF**kern: > = above
!!!RDF**kern: < = below
